packages/tokens/icons/clip/size16Px.svg

<svg viewBox="0 0 16 16" fill="none" xmlns="http://www.w3.org/2000/svg" width="1em" height="1em"><path d="M8.64642 4.64654C8.45115 4.8418 8.45115 5.15838 8.64642 5.35364C8.84168 5.54891 9.15826 5.54891 9.35352 5.35364L8.64642 4.64654ZM13.5 3.50005L13.1465 3.85361L13.5 3.50005ZM13.1465 6.14652L9.64651 9.64648L10.3536 10.3536L13.8536 6.85363L13.1465 6.14652ZM9.35352 5.35364L10.8536 3.85361L10.1464 3.14651L8.64642 4.64654L9.35352 5.35364ZM13.1465 3.85361C13.7796 4.48678 13.7796 5.51335 13.1465 6.14652L13.8536 6.85363C14.8773 5.82993 14.8773 4.17019 13.8536 3.1465L13.1465 3.85361ZM13.8536 3.1465C12.8299 2.12281 11.1701 2.12282 10.1464 3.14651L10.8536 3.85361C11.4867 3.22045 12.5133 3.22044 13.1465 3.85361L13.8536 3.1465Z" fill="currentColor"/><path d="M6.14642 4.14648C6.34168 3.95122 6.65826 3.95122 6.85352 4.14648C7.04878 4.34174 7.04878 4.65832 6.85352 4.85358L6.14642 4.14648ZM6.89645 12.3964L9.64645 9.64645L10.3536 10.3536L7.60355 13.1036L6.89645 12.3964ZM6.85352 4.85358L3.10355 8.60355L2.39645 7.89645L6.14642 4.14648L6.85352 4.85358ZM3.10355 12.3964C4.15093 13.4438 5.84907 13.4438 6.89645 12.3964L7.60355 13.1036C6.16565 14.5415 3.83435 14.5415 2.39645 13.1036L3.10355 12.3964ZM2.39645 13.1036C0.958544 11.6657 0.958543 9.33435 2.39645 7.89645L3.10355 8.60355C2.05617 9.65093 2.05617 11.3491 3.10355 12.3964L2.39645 13.1036Z" fill="currentColor"/><path d="M10 7L5.75 11.25C5.33579 11.6642 4.66421 11.6642 4.25 11.25V11.25C3.83579 10.8358 3.83579 10.1642 4.25 9.75L9.5 4.5" stroke="currentColor" stroke-linecap="round"/></svg>

<svg xmlns="http://www.w3.org/2000/svg" fill="none" viewBox="0 0 16 16" width="1em" height="1em"><path fill="currentColor" d="M8.646 4.647a.5.5 0 1 0 .708.707l-.708-.707ZM13.5 3.5l-.354.354.354-.354Zm-.354 2.647-3.5 3.5.708.707 3.5-3.5-.707-.707Zm-3.792-.793 1.5-1.5-.708-.707-1.5 1.5.708.707Zm3.793-1.5c.633.633.633 1.66 0 2.293l.707.707a2.621 2.621 0 0 0 0-3.708l-.707.708Zm.707-.708a2.621 2.621 0 0 0-3.708 0l.708.708a1.621 1.621 0 0 1 2.293 0l.707-.708Z"/><path fill="currentColor" d="M6.146 4.146a.5.5 0 0 1 .708.708l-.708-.708Zm.75 8.25 2.75-2.75.708.708-2.75 2.75-.708-.708Zm-.042-7.542-3.75 3.75-.708-.708 3.75-3.75.708.708Zm-3.75 7.542a2.682 2.682 0 0 0 3.792 0l.708.708a3.682 3.682 0 0 1-5.208 0l.708-.708Zm-.708.708a3.682 3.682 0 0 1 0-5.208l.708.708a2.682 2.682 0 0 0 0 3.792l-.708.708Z"/><path stroke="currentColor" stroke-linecap="round" d="m10 7-4.25 4.25a1.06 1.06 0 0 1-1.5 0v0a1.06 1.06 0 0 1 0-1.5L9.5 4.5"/></svg>
